X: 16933
T: Hawk Of Ballyshannon, The
R: reel
M: 4/4
K: Eminor
G3/2F/|EF GA Be ed|e/f/g dB/A/ Be d/B/A/B/|GE E/F/G/E/ d3G/F/|
EF GA B2 AG|F/G/A/B/ AA A2 G/A/B/c/|dd/e/ dB/d/ ef g3/2f/|
e/d/B/e/ d/B/A/B/ A/G/F/e/ d3/2B/|1 A/G/F/E/ FD E3G/F/:|2 A/G/F/E/ FD E3G/A/|:BA GE Ge dB|
dB/d/ dB d2 B2|GA/G/ dB/d/ ef g3/2f/|ed B/A/G A2 AG/A/|A/B/d A/B/d GB GB|
B/c/d B/c/d ef g2|e/d/B/e/ d/B/A/B/ A/G/F/e/ dB/B/|1 A/G/F/E/ FG E3G/A/:|2 A/G/F/E/ FG E4||

